X:1
T:Polska efter Sjungar Lars
R:Polska
Z:Anton Teljebck 2007-12-12
S:efter Sjungar Lars
O:Lima, Dalarna
S:Knd genom Mattias Helje
M:3/4
L:1/8
K:D
d>c A>c d>e | f>e (3def g>g | g>e (3faf d>e |1c>e dd c>A :|2(A<c) d4 :|
A | c>B AB/A/ G>A | FA G>B A>A  | c>B AB/A/ G>A | FA G>B A2|
d>c A>c d>e | f>e (3def g>g | g>e (3faf d>e | (A<c) d4 :|
